X: 1408
T: Mânâda Güzel Ruhta Güzel...
C: Sadi Işılay
O: Turkey
F: http://compmusic.upf.edu/node/140
N: huzzam--sarki--aksak--manada_guzel--sadi_isilay
N: makam= huzzam
N: form= sarki
N: usul= aksak = 9/8
M: 9/8
L: 1/16
K: C _1/4B _3/4e ^3/4f 
Q: 1/4=120
%%MIDI tuningsystem comma53
c3d d4 d2d2 g4 d2 | d3cdc cBB8z2  | c3d d2d2 d4 g6 | 
w:  Mâ *  nâ da  gü zel   |  ruh *  ta  *  gü *  zel   |  ten *  de  gü zel  | 
b6 agfe dcB4z2  | c3d d2d2 d4 e2c2 B2 | \
w:  sin    |  ten *  de  gü zel   | 
d6 dedc B^AB4z2  | 
w:  sin   SAZ  | 
c3d d4 d2d2 g4 d2 | d3cdc cBB8z2  | c3d d2d2 d4 g6 | 
w:  Mâ *  nâ da  gü zel   |  ruh *  ta  *  gü *  zel   |  ten *  de  gü zel  | 
b6 agfe dcB4z2  | c3d d2d2 d4 e2c2 B2 | \
w:  sin    |  ten *  de  gü zel   | 
d6 dedc Bcd4z2  | 
w:  sin   SAZ  | 
g4 fedc g2g2 b6 | c'3ba2 a2(3a^ga baa4=g2  | \
w:  Ey  sev *  *  *  gi li  sen   |  el *  de  de ğil   | 
g2f=e a2gf f2_3/4ed g2fe ed | 
w:  ben *  *  de  gü *  zel  | 
e6 d2(3gfe ede4d2  | d2dc B2B2 c2d2 e2dc cB | 
w:  sin    |  ben *  *  de  gü zel  | 
B6 dedc Bcd4z2  | g4 fedc g2g2 b6 | c'3ba2 a2(3a^ga baa4=g2  | 
w:  sin   SAZ  |  Ey  sev *  *  *  gi li  sen   |  el *  de  de ğil   | 
g2f=e a2gf f2_3/4ed g2fe ed | e6 d2(3gfe ede4d2  | 
w:  ben *  *  de  gü *  zel  |  sin    | 
d2dc B2B2 c2d2 e2dc cB | B6 bc'b^a gab4z2  | 
w:  ben *  *  de  gü zel  |  sin   SAZ  | 
b6ag f3e d2c2 B2 | Bc defg ^ab(3c'c'b agb6  | 
w:  Ah   |  ah   | 
b4 b4 b2ag c'6 | b4^a2 gfag f^ef4z2  | \
w:  Neş en de  hoş  *  am  |  ma  *  ba *  na   | 
a3g g2gf f2^e2 f2g2 gf | 
w:  gir *  yen *  *  de  gü zel  | 
f6 efg2 fedc B^AB2  | g4 fedc B2B2 g2fe ed | 
w:  sin   SAZ  |  gir yen *  *  *  de  gü zel  | 
d6 dedc Bcd4z2  | g4 fedc g2g2 b6 | c'3ba2 a2(3a^ga baa4=g2  | 
w:  sin   SAZ  |  Ey  sev *  *  *  gi li  sen   |  el *  de  de ğil   | 
g2f=e a2gf f2_3/4ed g2fe ed | e6 d2(3gfe ede4d2  | 
w:  ben *  *  de  gü *  zel  |  sin    | 
d2dc B2B2 c2d2 e2dc cB | B6 dedc Bcd4z2  | 
w:  ben *  *  de  gü zel  |  sin   SAZ  | 
g4 fedc g2g2 b6 | c'3ba2 a2(3a^ga baa4=g2  | \
w:  Ey  sev *  *  *  gi li  sen   |  el *  de  de ğil   | 
g2f=e a2gf f2_3/4ed g2fe ed | 
w:  ben *  *  de  gü *  zel  | 
e6 d2(3gfe ede4d2  | d2dc B2B2 c2d2 e2dc cB | 
w:  sin    |  ben *  *  de  gü zel  | 
B6 BcB^A GAB6  | |


